bicons/22x22/status/flag-yellow-clock.svg

<?xml version="1.0" encoding="UTF-8" standalone="no"?>
<!-- Created with Inkscape (http://www.inkscape.org/) -->

<svg
   xmlns:dc="http://purl.org/dc/elements/1.1/"
   xmlns:cc="http://creativecommons.org/ns#"
   xmlns:rdf="http://www.w3.org/1999/02/22-rdf-syntax-ns#"
   xmlns:svg="http://www.w3.org/2000/svg"
   xmlns="http://www.w3.org/2000/svg"
   xmlns:sodipodi="http://sodipodi.sourceforge.net/DTD/sodipodi-0.dtd"
   xmlns:inkscape="http://www.inkscape.org/namespaces/inkscape"
   width="210mm"
   height="297mm"
   viewBox="0 0 744.09448819 1052.3622047"
   id="svg2"
   version="1.1"
   inkscape:version="0.91 r13725"
   inkscape:export-xdpi="4.9496479"
   inkscape:export-ydpi="4.9496479"
   sodipodi:docname="flag-yellow-clock.svg"
   inkscape:export-filename="D:\Dokumente\Arbeit\RRZE\github\bicons\22x22\status\flag-yellow-clock.png">
  <defs
     id="defs4">
    <linearGradient
       id="linearGradient2224">
      <stop
         id="stop2226"
         offset="0"
         style="stop-color:#7c7c7c;stop-opacity:1;" />
      <stop
         id="stop2228"
         offset="1"
         style="stop-color:#b8b8b8;stop-opacity:1;" />
    </linearGradient>
    <linearGradient
       id="linearGradient15218">
      <stop
         id="stop15220"
         offset="0"
         style="stop-color:#eeeeef;stop-opacity:1;" />
      <stop
         id="stop2736"
         offset="0.59928656"
         style="stop-color:#d3d7cf;stop-opacity:1;" />
      <stop
         id="stop2738"
         offset="0.82758623"
         style="stop-color:#ffffff;stop-opacity:1;" />
      <stop
         id="stop15222"
         offset="1"
         style="stop-color:#d3d7cf;stop-opacity:1;" />
    </linearGradient>
    <pattern
       y="0"
       x="0"
       height="6"
       width="6"
       patternUnits="userSpaceOnUse"
       id="EMFhbasepattern" />
    <pattern
       y="0"
       x="0"
       height="6"
       width="6"
       patternUnits="userSpaceOnUse"
       id="EMFhbasepattern-5" />
  </defs>
  <sodipodi:namedview
     id="base"
     pagecolor="#ffffff"
     bordercolor="#666666"
     borderopacity="1.0"
     inkscape:pageopacity="0.0"
     inkscape:pageshadow="2"
     inkscape:zoom="0.70710678"
     inkscape:cx="168.6423"
     inkscape:cy="522.6111"
     inkscape:document-units="px"
     inkscape:current-layer="layer1"
     showgrid="false"
     showguides="true"
     inkscape:guide-bbox="true"
     inkscape:window-width="1600"
     inkscape:window-height="837"
     inkscape:window-x="-4"
     inkscape:window-y="-4"
     inkscape:window-maximized="1"
     inkscape:snap-bbox="true"
     inkscape:bbox-nodes="true">
    <sodipodi:guide
       position="315.53572,730.17859"
       orientation="0,1"
       id="guide3338" />
    <sodipodi:guide
       position="351.25,330.17858"
       orientation="0,1"
       id="guide3340" />
    <sodipodi:guide
       position="189.10714,408.8393"
       orientation="1,0"
       id="guide3344" />
    <sodipodi:guide
       position="589.04521,468.07945"
       orientation="1,0"
       id="guide3346" />
    <inkscape:grid
       type="xygrid"
       id="grid3440" />
    <sodipodi:guide
       position="0,0"
       orientation="0,1"
       id="guide3405" />
    <sodipodi:guide
       position="214.125,684.50002"
       orientation="1,0"
       id="guide3407" />
    <sodipodi:guide
       position="0,0"
       orientation="0,1"
       id="guide3409" />
    <sodipodi:guide
       position="589.04521,378.30213"
       orientation="1,0"
       id="guide3411" />
    <sodipodi:guide
       position="564.00001,683.37502"
       orientation="1,0"
       id="guide3413" />
  </sodipodi:namedview>
  <metadata
     id="metadata7">
    <rdf:RDF>
      <cc:Work
         rdf:about="">
        <dc:format>image/svg+xml</dc:format>
        <dc:type
           rdf:resource="http://purl.org/dc/dcmitype/StillImage" />
        <dc:title>flag yellow clock</dc:title>
        <dc:date>June 2015</dc:date>
        <dc:creator>
          <cc:Agent>
            <dc:title>Johannes Hechler</dc:title>
          </cc:Agent>
        </dc:creator>
        <dc:rights>
          <cc:Agent>
            <dc:title>Johannes Hechler</dc:title>
          </cc:Agent>
        </dc:rights>
        <dc:publisher>
          <cc:Agent>
            <dc:title>RRZE</dc:title>
          </cc:Agent>
        </dc:publisher>
        <dc:contributor>
          <cc:Agent>
            <dc:title>Ute Weber, Hendrik Eggers</dc:title>
          </cc:Agent>
        </dc:contributor>
      </cc:Work>
    </rdf:RDF>
  </metadata>
  <g
     inkscape:label="Ebene 1"
     inkscape:groupmode="layer"
     id="layer1">
    <flowRoot
       xml:space="preserve"
       id="flowRoot4169"
       style="font-style:normal;font-weight:normal;font-size:40px;line-height:125%;font-family:sans-serif;letter-spacing:0px;word-spacing:0px;fill:#252525;fill-opacity:1;stroke:none;stroke-width:1px;stroke-linecap:butt;stroke-linejoin:miter;stroke-opacity:1"
       transform="translate(534.75861,8.375918)"><flowRegion
         id="flowRegion4171"><rect
           id="rect4173"
           width="56.433445"
           height="88.78862"
           x="89.541069"
           y="427.07962" /></flowRegion><flowPara
         id="flowPara4175" /></flowRoot>    <flowRoot
       xml:space="preserve"
       id="flowRoot4169-0"
       style="font-style:normal;font-weight:normal;font-size:40px;line-height:125%;font-family:sans-serif;letter-spacing:0px;word-spacing:0px;fill:#252525;fill-opacity:1;stroke:none;stroke-width:1px;stroke-linecap:butt;stroke-linejoin:miter;stroke-opacity:1"
       transform="translate(486.59742,-64.690998)"><flowRegion
         id="flowRegion4171-7"><rect
           id="rect4173-6"
           width="56.433445"
           height="88.78862"
           x="89.541069"
           y="427.07962" /></flowRegion><flowPara
         id="flowPara4175-1" /></flowRoot>    <rect
       style="fill:none;fill-rule:evenodd;stroke:none;stroke-width:1px;stroke-linecap:butt;stroke-linejoin:miter;stroke-opacity:1"
       id="rect3336-7"
       width="400"
       height="400"
       x="189.01671"
       y="322.60623"
       inkscape:export-xdpi="4.9499998"
       inkscape:export-ydpi="4.9499998" />
    <rect
       style="opacity:1;fill:#4e505d;fill-opacity:1;stroke:none;stroke-width:16;stroke-linecap:round;stroke-linejoin:round;stroke-miterlimit:4;stroke-dasharray:none;stroke-opacity:1"
       id="rect4161-6"
       width="19.49004"
       height="400"
       x="206.92168"
       y="322.18362"
       ry="10.810812" />
    <path
       style="opacity:1;fill:#fbb516;fill-opacity:1;stroke:none;stroke-width:16;stroke-linecap:round;stroke-linejoin:round;stroke-miterlimit:4;stroke-dasharray:none;stroke-opacity:1"
       d="m 337.90463,324.2325 c -42.1506,-0.2855 -81.06602,20.54266 -84.23047,23.43945 -4.06896,3.7248 -9.99023,4.27352 -9.99023,9.58203 l 0,153.31446 c 0,5.30851 5.93876,13.29333 9.99023,9.58203 43.977,-40.28461 88.27392,-40.39058 126.79688,-16.13476 24.03488,-21.78606 55.88875,-35.08789 90.75,-35.08789 30.85222,0 59.34389,10.42471 82.15039,27.92187 l 0,-139.59571 c 0,-5.30851 -4.54415,-10.85246 -9.99024,-9.58203 0,0 -85.45069,50.46413 -141.25,0 -19.18101,-17.34704 -42.14767,-23.28991 -64.22656,-23.43945 z m 133.31641,179.69532 c -23.68331,0 -45.38639,8.11176 -62.50391,21.7168 35.80302,23.06887 97.67074,6.78473 123.11328,-1.46876 -16.81184,-12.71777 -37.79118,-20.24804 -60.60937,-20.24804 z"
       id="rect4163-0"
       inkscape:connector-curvature="0" />
    <circle
       style="opacity:1;fill:#4e505d;fill-opacity:1;stroke:none;stroke-width:16;stroke-linecap:round;stroke-linejoin:round;stroke-miterlimit:4;stroke-dasharray:none;stroke-opacity:1"
       id="path4188-3"
       cx="471.22086"
       cy="604.2525"
       r="117.82434" />
    <rect
       style="opacity:1;fill:#ffffff;fill-opacity:1;stroke:none;stroke-width:16;stroke-linecap:round;stroke-linejoin:round;stroke-miterlimit:4;stroke-dasharray:none;stroke-opacity:1"
       id="rect4194-2"
       width="18.330164"
       height="71.352196"
       x="-481.46576"
       y="540.60004"
       ry="10.381795"
       rx="9.1438351"
       transform="matrix(-0.99999722,-0.00235653,-0.00235653,0.99999722,0,0)"
       inkscape:transform-center-x="2.2537229"
       inkscape:transform-center-y="36.433791" />
    <rect
       style="opacity:1;fill:#ffffff;fill-opacity:1;stroke:none;stroke-width:36;stroke-linejoin:round;stroke-miterlimit:4;stroke-dasharray:none;stroke-dashoffset:0;stroke-opacity:1"
       id="rect4454"
       width="109.08001"
       height="18.179989"
       x="370.81668"
       y="594.88348"
       rx="7.8796101"
       ry="9.0899944" />
  </g>
</svg>

<?xml version="1.0" encoding="UTF-8" standalone="no"?>
<!-- Created with Inkscape (http://www.inkscape.org/) -->

<svg
   xmlns:dc="http://purl.org/dc/elements/1.1/"
   xmlns:cc="http://creativecommons.org/ns#"
   xmlns:rdf="http://www.w3.org/1999/02/22-rdf-syntax-ns#"
   xmlns:svg="http://www.w3.org/2000/svg"
   xmlns="http://www.w3.org/2000/svg"
   xmlns:sodipodi="http://sodipodi.sourceforge.net/DTD/sodipodi-0.dtd"
   xmlns:inkscape="http://www.inkscape.org/namespaces/inkscape"
   width="210mm"
   height="297mm"
   viewBox="0 0 744.09448819 1052.3622047"
   id="svg2"
   version="1.1"
   inkscape:version="0.91 r13725"
   inkscape:export-xdpi="4.9496474"
   inkscape:export-ydpi="4.9496474"
   sodipodi:docname="flag-yellow-clock.svg"
   inkscape:export-filename="C:\Users\johannes\Documents\Arbeit\RRZE\github3\bicons\22x22\status\flag-yellow-clock.png">
  <defs
     id="defs4">
    <linearGradient
       id="linearGradient2224">
      <stop
         id="stop2226"
         offset="0"
         style="stop-color:#7c7c7c;stop-opacity:1;" />
      <stop
         id="stop2228"
         offset="1"
         style="stop-color:#b8b8b8;stop-opacity:1;" />
    </linearGradient>
    <linearGradient
       id="linearGradient15218">
      <stop
         id="stop15220"
         offset="0"
         style="stop-color:#eeeeef;stop-opacity:1;" />
      <stop
         id="stop2736"
         offset="0.59928656"
         style="stop-color:#d3d7cf;stop-opacity:1;" />
      <stop
         id="stop2738"
         offset="0.82758623"
         style="stop-color:#ffffff;stop-opacity:1;" />
      <stop
         id="stop15222"
         offset="1"
         style="stop-color:#d3d7cf;stop-opacity:1;" />
    </linearGradient>
    <pattern
       y="0"
       x="0"
       height="6"
       width="6"
       patternUnits="userSpaceOnUse"
       id="EMFhbasepattern" />
    <pattern
       y="0"
       x="0"
       height="6"
       width="6"
       patternUnits="userSpaceOnUse"
       id="EMFhbasepattern-5" />
  </defs>
  <sodipodi:namedview
     id="base"
     pagecolor="#ffffff"
     bordercolor="#666666"
     borderopacity="1.0"
     inkscape:pageopacity="0.0"
     inkscape:pageshadow="2"
     inkscape:zoom="0.70710678"
     inkscape:cx="462.79872"
     inkscape:cy="522.6111"
     inkscape:document-units="px"
     inkscape:current-layer="layer1"
     showgrid="false"
     showguides="true"
     inkscape:guide-bbox="true"
     inkscape:window-width="1366"
     inkscape:window-height="721"
     inkscape:window-x="-4"
     inkscape:window-y="-4"
     inkscape:window-maximized="1">
    <sodipodi:guide
       position="315.53572,730.17859"
       orientation="0,1"
       id="guide3338" />
    <sodipodi:guide
       position="351.25,330.17858"
       orientation="0,1"
       id="guide3340" />
    <sodipodi:guide
       position="189.10714,408.8393"
       orientation="1,0"
       id="guide3344" />
    <sodipodi:guide
       position="589.04521,468.07945"
       orientation="1,0"
       id="guide3346" />
    <inkscape:grid
       type="xygrid"
       id="grid3440" />
    <sodipodi:guide
       position="0,0"
       orientation="0,1"
       id="guide3405" />
    <sodipodi:guide
       position="214.125,684.50002"
       orientation="1,0"
       id="guide3407" />
    <sodipodi:guide
       position="0,0"
       orientation="0,1"
       id="guide3409" />
    <sodipodi:guide
       position="589.04521,378.30213"
       orientation="1,0"
       id="guide3411" />
    <sodipodi:guide
       position="564.00001,683.37502"
       orientation="1,0"
       id="guide3413" />
  </sodipodi:namedview>
  <metadata
     id="metadata7">
    <rdf:RDF>
      <cc:Work
         rdf:about="">
        <dc:format>image/svg+xml</dc:format>
        <dc:type
           rdf:resource="http://purl.org/dc/dcmitype/StillImage" />
        <dc:title>flag yellow clock</dc:title>
        <dc:date>June 2015</dc:date>
        <dc:creator>
          <cc:Agent>
            <dc:title>Johannes Hechler</dc:title>
          </cc:Agent>
        </dc:creator>
        <dc:rights>
          <cc:Agent>
            <dc:title>Johannes Hechler</dc:title>
          </cc:Agent>
        </dc:rights>
        <dc:publisher>
          <cc:Agent>
            <dc:title>RRZE</dc:title>
          </cc:Agent>
        </dc:publisher>
        <dc:contributor>
          <cc:Agent>
            <dc:title>Ute Weber, Hendrik Eggers</dc:title>
          </cc:Agent>
        </dc:contributor>
      </cc:Work>
    </rdf:RDF>
  </metadata>
  <g
     inkscape:label="Ebene 1"
     inkscape:groupmode="layer"
     id="layer1">
    <g
       id="g4178">
      <flowRoot
         transform="translate(554.72527,48.436814)"
         style="font-style:normal;font-weight:normal;font-size:40px;line-height:125%;font-family:sans-serif;letter-spacing:0px;word-spacing:0px;fill:#252525;fill-opacity:1;stroke:none;stroke-width:1px;stroke-linecap:butt;stroke-linejoin:miter;stroke-opacity:1"
         id="flowRoot4169"
         xml:space="preserve"><flowRegion
           id="flowRegion4171"><rect
             y="427.07962"
             x="89.541069"
             height="88.78862"
             width="56.433445"
             id="rect4173" /></flowRegion><flowPara
           id="flowPara4175" /></flowRoot>      <flowRoot
         transform="translate(486.56409,-64.700286)"
         style="font-style:normal;font-weight:normal;font-size:40px;line-height:125%;font-family:sans-serif;letter-spacing:0px;word-spacing:0px;fill:#252525;fill-opacity:1;stroke:none;stroke-width:1px;stroke-linecap:butt;stroke-linejoin:miter;stroke-opacity:1"
         id="flowRoot4169-0"
         xml:space="preserve"><flowRegion
           id="flowRegion4171-7"><rect
             y="427.07962"
             x="89.541069"
             height="88.78862"
             width="56.433445"
             id="rect4173-6" /></flowRegion><flowPara
           id="flowPara4175-1" /></flowRoot>      <rect
         inkscape:export-ydpi="4.9499998"
         inkscape:export-xdpi="4.9499998"
         y="322.59698"
         x="188.98335"
         height="400"
         width="400"
         id="rect3336-7"
         style="fill:none;fill-rule:evenodd;stroke:none;stroke-width:1px;stroke-linecap:butt;stroke-linejoin:miter;stroke-opacity:1" />
      <rect
         ry="10.810812"
         y="322.17438"
         x="206.88832"
         height="400"
         width="19.49004"
         id="rect4161-6"
         style="opacity:1;fill:#4e505d;fill-opacity:1;stroke:none;stroke-width:16;stroke-linecap:round;stroke-linejoin:round;stroke-miterlimit:4;stroke-dasharray:none;stroke-opacity:1" />
      <path
         id="rect4163-0"
         d="M 337.87109 324.22266 C 295.72049 323.93716 256.80507 344.76532 253.64062 347.66211 C 249.57167 351.38691 243.65234 351.93563 243.65234 357.24414 L 243.65234 510.55859 C 243.65234 515.8671 249.58916 523.85193 253.64062 520.14062 C 297.61795 479.85571 341.91435 479.75145 380.4375 504.00781 C 404.47239 482.2213 436.32625 468.91797 471.1875 468.91797 C 502.03994 468.91797 530.53132 479.34402 553.33789 496.8418 L 553.33789 357.24414 C 553.33789 351.93563 548.79375 346.39168 543.34766 347.66211 C 543.34766 347.66211 457.89698 398.12624 402.09766 347.66211 C 382.91664 330.31507 359.94998 324.3722 337.87109 324.22266 z M 471.1875 503.91797 C 447.50431 503.91797 425.80108 512.02944 408.68359 525.63477 C 444.48644 548.70353 506.3541 532.4215 531.79688 524.16797 C 514.98499 511.4497 494.0058 503.91797 471.1875 503.91797 z "
         style="opacity:1;fill:#fbb516;fill-opacity:1;stroke:none;stroke-width:16;stroke-linecap:round;stroke-linejoin:round;stroke-miterlimit:4;stroke-dasharray:none;stroke-opacity:1" />
      <circle
         r="117.82434"
         cy="604.24323"
         cx="471.1875"
         id="path4188-3"
         style="opacity:1;fill:#4e505d;fill-opacity:1;stroke:none;stroke-width:16;stroke-linecap:round;stroke-linejoin:round;stroke-miterlimit:4;stroke-dasharray:none;stroke-opacity:1" />
      <circle
         r="16.832048"
         cy="604.24323"
         cx="471.1875"
         id="path4190-8"
         style="opacity:1;fill:#ffffff;fill-opacity:1;stroke:none;stroke-width:16;stroke-linecap:round;stroke-linejoin:round;stroke-miterlimit:4;stroke-dasharray:none;stroke-opacity:1" />
      <rect
         inkscape:transform-center-y="-1.0438364"
         inkscape:transform-center-x="52.759741"
         rx="7.8796144"
         transform="matrix(0.99998713,-0.00507251,0.00627149,0.99998033,0,0)"
         ry="6.4600363"
         y="598.26685"
         x="361.09665"
         height="12.920073"
         width="104.31429"
         id="rect4192-8"
         style="opacity:1;fill:#ffffff;fill-opacity:1;stroke:none;stroke-width:16;stroke-linecap:round;stroke-linejoin:round;stroke-miterlimit:4;stroke-dasharray:none;stroke-opacity:1" />
      <rect
         inkscape:transform-center-y="36.433791"
         inkscape:transform-center-x="2.2537229"
         transform="matrix(-0.99999722,-0.00235653,-0.00235653,0.99999722,0,0)"
         rx="9.1654816"
         ry="10.381795"
         y="607.68097"
         x="-481.93039"
         height="70.99865"
         width="18.330963"
         id="rect4194-2"
         style="opacity:1;fill:#ffffff;fill-opacity:1;stroke:none;stroke-width:16;stroke-linecap:round;stroke-linejoin:round;stroke-miterlimit:4;stroke-dasharray:none;stroke-opacity:1" />
    </g>
  </g>
</svg>
